staging/svg/comodidad.svg

<?xml version="1.0" encoding="UTF-8"?>
<svg width="46px" height="40px" viewBox="0 0 46 40" version="1.1" xmlns="http://www.w3.org/2000/svg" xmlns:xlink="http://www.w3.org/1999/xlink">
    <!-- Generator: Sketch 55.2 (78181) - https://sketchapp.com -->
    <title>Group</title>
    <desc>Created with Sketch.</desc>
    <g id="final" stroke="none" stroke-width="1" fill="none" fill-rule="evenodd">
        <g id="mobile_V1" transform="translate(-164.000000, -2195.000000)" fill="#439417" fill-rule="nonzero">
            <g id="Group" transform="translate(164.000000, 2195.000000)">
                <path d="M12.9044372,38.6108324 C14.509668,40.2074099 17.1357132,40.0662334 18.5623014,38.3053778 L44.5165096,6.28142061 C45.8512245,4.63350617 45.606229,2.20783772 43.9678218,0.865377826 C42.3294146,-0.477082067 39.9177403,-0.230664955 38.5830254,1.41724948 L15.3314236,30.1864473 L6.51924261,21.4335062 C5.01609329,19.9370356 2.5916589,19.9524366 1.10637383,21.4643083 C-0.381463271,22.97618 -0.366151054,25.4146826 1.13699827,26.9085864 L12.9044372,38.6133992" id="Path"></path>
            </g>
        </g>
    </g>
</svg>

<svg xmlns="http://www.w3.org/2000/svg" width="46" height="40">
  <path fill="#439417" fill-rule="nonzero" d="M12.904 38.61a3.813 3.813 0 0 0 5.658-.305L44.517 6.281a3.865 3.865 0 0 0-.55-5.416 3.813 3.813 0 0 0-5.384.552l-23.252 28.77-8.812-8.753a3.81 3.81 0 0 0-5.413.03 3.864 3.864 0 0 0 .031 5.445l11.767 11.704"/>
</svg>
